X:1
T:Title
%%score { ( 1 3 ) | 2 }
L:1/8
M:4/4
K:Eb
V:1 treble nm="Grand Piano"
V:3 treble 
V:2 bass 
V:1
 z4 z2 z[Q:1/4=100] E | G2 A2 B3 G | A2 B2 c3 c | B2 G2 G2 E2 |[M:7/8] [EG]2 [DF]- [DF]3 z | %5
[M:1/8] E |[M:4/4] G2 A2 B3 G | A2 B2 c3 [Ec] | [EB]2 [EG]2 [EG]2 E2 |[M:3/4] [DF]2 E4 | %10
[M:1/4] B>e |[M:4/4] d6 z2 | c6 z2 | G2 F2 d2 c2 |[M:9/8] [Ec]2 [DB]- [DB]3- [DB]2 z | %15
[M:1/8] [DA] |[M:4/4] G2 A2 B3 G | A2 B2 c3 [Ec] | [EB]2 [EG]2 [EG]2 [G,E]2 | %19
[M:7/8] [A,DF]2 [G,E]- [G,E]3 z |] %20
V:2
 z4 z2 z [E,G,] | [E,B,E]2 [F,B,D]2 [G,B,E]3 [E,B,E] | [F,B,D]2 [G,B,E]2 [A,E]3 [A,E] | %3
 [E,G,E]2 [E,B,E]2 [E,B,E]2 [E,G,]2 |[M:7/8] [B,,B,]2 [B,,A,]- [B,,A,]3 z |[M:1/8] [E,G,] | %6
[M:4/4] [E,B,E]2 [F,B,D]2 [G,B,E]3 [E,B,E] | [F,B,D]2 [G,B,E]2 [A,E]3 [A,,A,] | %8
 [B,,G,]2 [B,,B,]2 [B,,B,]2 [B,,G,]2 |[M:3/4] [B,,A,]2 [E,G,]4 |[M:1/4] z2 | %11
[M:4/4] z2[K:treble] [A,F]>[B,F] [B,F]2 z2 | z2[K:bass] [E,E]>[E,E] [E,E]2 [E,B,E]2 | %13
 [F,=A,E]2 [F,A,E]2 [F,A,F]2 [F,A,E]2 |[M:9/8] [B,,B,]2 [B,,B,]- [B,,B,]3- [B,,B,]2 z | %15
[M:1/8] [B,,B,] |[M:4/4] [E,B,E]2 [F,B,D]2 [G,B,E]3 [E,B,E] | [F,B,D]2 [G,B,E]2 [A,E]3 [A,,A,] | %18
 [B,,G,]2 [B,,B,]2 [B,,B,]2 B,,2 |[M:7/8] B,,2 E,- E,3 z |] %20
V:3
 x8 | x8 | x8 | x8 |[M:7/8] x7 |[M:1/8] x |[M:4/4] x8 | x8 | x8 |[M:3/4] x6 |[M:1/4] x2 | %11
[M:4/4] z2 A>A A2 A>d | z2 G>G G2 G2 | x8 |[M:9/8] x9 |[M:1/8] x |[M:4/4] x8 | x8 | x8 | %19
[M:7/8] x7 |] %20

